packages/kaspersky-hexa-ui-icons/src/iconsSVGs/32/ShieldDangerSolid.svg

<svg width="32" height="32" viewBox="0 0 32 32" fill="none" xmlns="http://www.w3.org/2000/svg">
<g clip-path="url(#clip0_36638_53)">
<path fill-rule="evenodd" clip-rule="evenodd" d="M4.6921 5.44024L13.9556 0.484781C15.2426 -0.161593 16.7574 -0.161594 18.0444 0.48478L27.3079 5.44024C28.0823 5.82915 28.5714 6.62416 28.5714 7.4938V16.5555C28.5714 18.1855 28.1911 19.9786 27.4286 21.7143C24.5714 28 18.2857 32 16 32C13.7143 32 7.35782 28 4.57145 21.7143C3.7832 19.9361 3.42859 18.1031 3.42859 16.4635V7.4938C3.42859 6.62416 3.91774 5.82915 4.6921 5.44024ZM20.7241 11.2759C20.3336 10.8854 19.7004 10.8854 19.3099 11.2759L16 14.5858L12.6902 11.2759C12.2996 10.8854 11.6665 10.8854 11.2759 11.2759C10.8854 11.6665 10.8854 12.2996 11.2759 12.6901L14.5858 16L11.2759 19.3099C10.8854 19.7004 10.8854 20.3335 11.2759 20.7241C11.6665 21.1146 12.2996 21.1146 12.6902 20.7241L16 17.4142L19.3099 20.7241C19.7004 21.1146 20.3336 21.1146 20.7241 20.7241C21.1146 20.3335 21.1146 19.7004 20.7241 19.3099L17.4142 16L20.7241 12.6901C21.1146 12.2996 21.1146 11.6665 20.7241 11.2759Z" fill="black"/>
</g>
<defs>
<clipPath id="clip0_36638_53">
<rect width="32" height="32" fill="white"/>
</clipPath>
</defs>
</svg>

<svg xmlns="http://www.w3.org/2000/svg" width="32" height="32" fill="none" viewBox="0 0 32 32"><path fill="#000" fill-rule="evenodd" d="M4.6922 5.4402 13.9557.4848a4.553 4.553 0 0 1 4.0888 0l9.2636 4.9554c.7743.389 1.2635 1.184 1.2635 2.0536v9.0617c0 1.63-.3804 3.4231-1.1429 5.1588C24.5716 28 18.2859 32 16.0001 32c-2.2857 0-8.6422-4-11.4285-10.2857-.7883-1.7782-1.1429-3.6112-1.1429-5.2508V7.4938c0-.8696.4892-1.6646 1.2635-2.0536m16.032 5.8357c-.3905-.3905-1.0237-.3905-1.4142 0l-3.3099 3.3099-3.3098-3.3099c-.3905-.3905-1.0237-.3905-1.4142 0-.3906.3906-.3906 1.0237 0 1.4142L14.5859 16l-3.3098 3.3099c-.3906.3905-.3906 1.0236 0 1.4142s1.0237.3905 1.4142 0l3.3098-3.3099 3.3099 3.3099c.3905.3905 1.0237.3905 1.4142 0s.3905-1.0237 0-1.4142L17.4144 16l3.3098-3.3099c.3905-.3905.3905-1.0236 0-1.4142"/></svg>
